X:1
T:Songs of Praise
T:Songs of Praise
T:R. Menthal
T:Susan Ketcham Bourne, 1892
T:Public Domain Courtesy of the Cyber Hymnal™
T:Public Domain Courtesy of the Cyber Hymnal™
C:R. Menthal
Z:Public Domain
Z:Courtesy of the Cyber Hymnal™
%%score ( 1 2 ) ( 3 4 )
L:1/8
Q:1/4=150
M:6/4
K:F
V:1 treble 
V:2 treble 
V:3 bass 
V:4 bass 
V:1
 [Fc]4 [Fc]2 [FA]6 | [FA]4 [FA]2 F6 | [EB]2 [EB]2 [Ec]2 (d2 c2) [D=B]2 | [Cc-]6 [Fc]6 | %4
w: 1.~Songs of praise,|songs of praise,|Fa- ther of life, * to|Thee! Pra-|
w: 2.~For Thy love,|for Thy love,|How can we praise * Thee,|Lord! Ho-|
 E4 [EG]2 [EB]6 | (d2 c2) [EB]2 [FA]6 | F2 [FG]2 [FB]2 [FA]4 [EG]2 | F12 | %8
w: ise, praise, now|we * raise, For|all Thy gifts so free!|Joy-|
w: ly love from|a- * bove, How|can we bless Thee, Lord!|Ev-|
 [Ac]2 [Ad]2 [Ae]2 [^Gf]2 [Ge]2 [Gd]2 | [Ac]2 [Ac]2 [FA]2 [EG]6 | %10
w: ful- ly own- ing Thy love|and Thy power, Grate-|
w: er we’ll live in thy ser-|vice so sweet, Lay-|
 [FA]2 [FA]2 [EA]2 [Fd]2 [Fc]2 [FB]2 | [EB]2 [EA]2 [E^G]2 [FA]6 | %12
w: ful for bless- ings re- newed|ev- ery hour, Lord,|
w: ing our hearts and our lives|at Thy feet, Trust-|
 [FA]2 [FA]2 [EB]2 (=B2 c2) [F^c]2 | ([F-d]6 [FB]6) | (A2 G2) [FA]2 c2 [FB]2 [EB]2 | %15
w: our full hearts would * be|Ev- *|er * sing- ing and ev-|
w: ing Thy gra- cious * word,|Ev- *|er * sing- ing and ev-|
 (A2 G2) [=E^F]2 [DG]2 D2 [CE]2 | [CF]12 |] %17
w: er * bring- ing Thee praise!||
w: er * bring- ing Thee praise!||
V:2
 x12 | x6 F6 | x6 E4 x2 | x12 | E4 x8 | E4 x8 | F2 x10 | F12 | x12 | x12 | x12 | x12 | x6 F4 x2 | %13
 x12 | F4 (AG) x6 | _E4 x2 D2 x4 | x12 |] %17
V:3
 [F,A,]4 [F,A,]2 [F,C]6 | [F,C]4 [F,C]2 [F,A,]6 | [C,G,]2 [C,G,]2 [C,G,]2 (B,2 A,2) [C,^G,]2 | %3
 [F,A,]12 | [C,G,]4 [C,G,]2 [C,G,]6 | (B,2 A,2) [C,G,]2 ([F,A,]4 [_E,C]2) | %6
 [D,B,]2 [B,,D]2 [G,,D]2 [C,C]4 [C,B,]2 | [F,,F,A,]12 | %8
 [F,C]2 [F,C]2 [F,C]2 [F,=B,]2 [F,B,]2 [F,B,]2 | [F,C]2 [F,C]2 [F,C]2 [C,C]6 | %10
 [F,C]2 [_E,C]2 [D,B,]2 [B,,B,]2 [A,,C]2 [G,,D]2 | [C,C]2 [C,C]2 [C,C]2 [F,C]6 | %12
 [F,C]2 [F,C]2 [G,C]2 [^G,D]2 [A,C]2 [A,_E]2 | ([B,D]6 [B,,D]6) | %14
 (C2 B,2) [C,C]2 (FE) [C,D]2 [C,C]2 | (C2 B,2) [F,,A,]2 [B,,B,]2 (B,G,) (CB,) | [F,,F,A,]12 |] %17
V:4
 x12 | x12 | x6 C,4 x2 | x12 | x12 | C,4 x8 | x12 | x12 | x12 | x12 | x12 | x12 | x12 | x12 | %14
 C,4 C,2 x6 | [F,,F,]4 x2 B,,2 C,2 x2 | x12 |] %17

